
T:Master Seamus
R:reel
C:Charlie Lennon
D:Dermot Byrne: "Dermot Byrne", 1a
M:C|
L:1/8
K:A
AF||EC~C2 EAcA|FD~D2 FAdA|GE~E2 (3GAB e^d|fe^de cAFA|
~E2CE ACEA|FA,DF ADFA|GBEG BecB|AFEC A,3C|
EC~C2 EAcA|FD~D2 FAdA|GEBE (3GAB e^d|fe^de cAFA|
~E2CE ACEA|FA,DF ADFA|(3GAB EG BecB|AGBG ABcd||
e~a2g ae (3cde|fddc dd'ba|g~e2^d ec'd'c'|bagf edcd|
~e2 (3cde aece|c~d2c BcAG|F~d3 FdBA|GEDB, A,3c|
e~a2g aece|fddc dd'ba|g~e2^d ec'd'c'|bagf edcd|
e2 (3cde aece|c~d2c BcAG|F~d3 fdBA|GEDB, A,GAF||
"2nd time:"
EC~C2 EAcA|FD~D2 FAdA|GEBE (3GAB e^d|fe^de cAFA|
~E2CE ACEA|FA,DF ADFA|(3GAB EG BecB|AFEC A,3E|
A,C~C2 CEcA|FDAD FAdA|GEBE (3GAB e^d|fege cAFA|
~E2CE ACEA|FA,DF ADFA|(3GAB EG BecB|AGBG ABcd||
e~a2g ae (3cde|fddc dd'ba|g~e2^d ec'd'c'|bagf edcd|
eAce aece|~d3c BcAG|F~d3 fdBA|GEDB, A,3c|
e~a2g aece|fddc dfba|g~e2^d ec'd'c'|bagf edcd|
~e2 (3cde aece|c~d2c BcAG|F~d3 fdBA|GEDB, A,GAF||
"3rd time:"
EC~C2 EAcA|FD~D2 FAdA|GEBE (3GAB e^d|fe^de cAFA|
~E2CE ACEA|FA,DF ADFA|(3GAB EG BecB|AFEC A,3E|
A,C~C2 CEcA|FDAD FAdA|GEBE (3GAB e^d|fege cAFA|
~E2CE ACEA|FA,DF ADFA|(3GAB EG BecB|AGBG ABcd||
e~a2g ae (3cde|fddc dd'ba|g~e2^d ec'd'c'|bagf edcd|
~e2^de aece|c~d2c BcAG|F~d3 fdBA|GEDB, A,3c|
e~a2g aece|f~d2c dfba|g~e2^d ec'd'c'|bagf edcd|
~e2^de aece|c~d2c BcAG|F~d3 fdBA|GEDB, A,2z2||

